!!!COM: Palestrina, Giovanni Perluigi da
!!!OPR: Missa Ecce sacerdos magnus
!!!OMD: Benedictus
!!!OTL: First Section
**kern	**kern	**kern
*Itenor	*Icalto	*Icant
!Tenor	!Altus	!Cantus
*clefGv2	*clefG2	*clefG2
*k[]	*k[]	*k[]
*G:mix	*G:mix	*G:mix
*M4/2	*M4/2	*M4/2
=1	=1	=1
0r	0g	0r
=2	=2	=2
0r	1f#	0r
.	[1g	.
=3	=3	=3
0r	2g]	0dd
.	4f	.
.	4e	.
.	2d	.
.	2f	.
=4	=4	=4
0r	2e	1cc#
.	2A	.
.	2B	[1dd
.	4G	.
.	4A	.
=5	=5	=5
0r	4B	2dd]
.	4c	.
.	4d	4cc
.	4e	4b
.	4f	2a
.	4g	.
.	[2a	2cc
=6	=6	=6
1r	4a]	1b
.	4g	.
.	1g	.
[1d	.	[1a
.	[2f	.
=7	=7	=7
1d]	2f]	1a]
.	4e	.
.	4d	.
1c#	1e	2r
.	.	2e
=8	=8	=8
1.d	1d	2f
.	.	4d
.	.	4e
.	1a	4f
.	.	4g
4c	.	4a
4B	.	4b
=9	=9	=9
2A	2a	4cc
.	.	4dd
2c	4g	2.ee
.	4f	.
1B	4g	.
.	4f	4dd
.	4e	[2dd
.	4d	.
=10	=10	=10
2A	1e	2dd]
2A	.	2cc#
2B	1d	[1dd
4G	.	.
4A	.	.
=11	=11	=11
4B	4G	1dd]
4c	4A	.
4d	4B	.
4e	4c	.
4f	4d	1a
4g	4e	.
[2a	2f	.
=12	=12	=12
4a]	2e	2b
4g	.	.
1g	2c	2cc
.	1d	1a
2f#	.	.
=13	=13	=13
1g	1r	2.b
.	.	4a
2.G	[1g	4b
.	.	4cc
.	.	[2dd
4A	.	.
=14	=14	=14
2B	1g]	2dd]
2c	.	4cc
.	.	4b
1d	1f#	1a
=15	=15	=15
0G	1.g	1r
.	.	[1dd
.	4f	.
.	4e	.
=16	=16	=16
0r	2d	1dd]
.	2f	.
.	1e	1cc#
=17	=17	=17
0r	2d	1.dd
.	4G	.
.	4A	.
.	4B	.
.	4G	.
.	4A	4cc
.	4B	4b
=18	=18	=18
1r	4c	2a
.	4d	.
.	1e	2cc
[1g	.	2.b
.	4d	.
.	4c	4cc
=19	=19	=19
1g]	2B	1dd
.	2G	.
1f#	1d	2r
.	.	2a
=20	=20	=20
1.g	1G	2b
.	.	4g
.	.	4a
.	1r	4b
.	.	4cc
4f	.	4dd
4e	.	4ee
=21	=21	=21
2d	1r	2ff
2f	.	1dd
1e	2r	.
.	2A	2cc#
=22	=22	=22
0d	2B	1dd
.	4G	.
.	4A	.
.	4B	2r
.	4c	.
.	4d	[2dd
.	4e	.
=23	=23	=23
2r	4f	2dd]
.	4g	.
2A	2.a	2cc#
2B	.	2.dd
.	4g	.
4G	[2g	.
4A	.	4cc
=24	=24	=24
4B	2g]	2b
4c	.	.
4d	2.f	4a
4e	.	4g
4f	.	4a
4g	4e	4b
[2a	2c	[2cc
=25	=25	=25
4a]	1e	4cc]
4g	.	4b
1g	.	2g
.	1d	1a
2f	.	.
=26	=26	=26
1e	2r	1g
.	2g	.
2d	2f	1r
[2c	2e	.
=27	=27	=27
2c]	2.d	2r
2B	.	2dd
.	4e	.
2A	2f	2cc
2G	[2g	2b
=28	=28	=28
2r	2g]	2.a
2d	2f	.
.	.	4b
2c	2e	2cc
2B	2d	[2dd
=29	=29	=29
1A	2e	2dd]
.	2e	2cc
2r	1d	2b
2d	.	[2a
=30	=30	=30
2c	1r	2a]
2B	.	2g#
2.A	2r	1a
.	2a	.
4B	.	.
=31	=31	=31
2c	2g	1r
1d	2f	.
.	2.e	2r
2c	.	2dd
.	4f	.
=32	=32	=32
2B	2g	2dd
2A	1a	2cc
1e	.	2.b
.	2g	.
.	.	4cc
=33	=33	=33
2d	2f	2dd
2c	2e	2.ee
2d	2.f	.
.	.	4dd
2d	.	[2dd
.	8e	.
.	8d	.
=34	=34	=34
1A	2e	2dd]
.	2e	2cc
1r	1d	2b
.	.	[2a
=35	=35	=35
1d	1r	4a]
.	.	4g
.	.	2f
2c	1g	2e
2B	.	2d
=36	=36	=36
2A	2f	1a
1c	2e	.
.	2.d	2r
2B	.	2dd
.	4e	.
=37	=37	=37
2A	2f	2cc
2G	1g	2b
1d	.	2.a
.	2f	.
.	.	4b
=38	=38	=38
1r	2e	2cc
.	2d	2dd
1g	2c	2ee
.	2B	[2dd
=39	=39	=39
2f	1A	2dd]
2e	.	2cc#
2.d	2.B	1dd
4e	4c	.
=40	=40	=40
2f	2d	2r
2g	2B	2dd
2a	1c	2cc
[2g	.	2b
=41	=41	=41
2g]	1d	2.a
2f	.	.
.	.	4b
2e	1r	2cc
2d	.	2dd
=42	=42	=42
2c	1g	2ee
2B	.	1dd
1A	2f	.
.	2e	2cc#
=43	=43	=43
2.B	2.d	2.dd
4c	4e	8cc
.	.	8b
2d	2f	2a
2e	[2g	2g
=44	=44	=44
1.d	2g]	1.a
.	4f	.
.	4e	.
.	2f#	.
2d	2f#	2a
=45	=45	=45
0G	0g	0b
*-	*-	*-
!!!CDT: 1525/^1526/-1594/2/2
!!!OCY: Italia
!!!AGN: Mass (Tenor)
!!!AST: renaissance, vocal
!!!ASW: Antiphon
!!!PWK: Masses, Book I
!!!RNB: Cadence finals: D,C
!!!YOR: Le Opere Complete, v. 1, p. 1
!!!YOO: Rome, Italy: Fratelli Scalera
!!!END: 1992//
!!!EED: John Miller
!!!YEC: Copyright 2000, John Miller
!!!YEN: United States of America
!!!YEM: Rights to all derivative electronic formats reserved.
!!!YEM: Refer to licensing agreement for further details.
!!!YEM: This file must be accompanied by the licensing agreement.
!!!YEM: A copy of the licensing agreement may be found at http://www.music-cog.ohio-state.edu/HumdrumDatabases/Palestrina/license.txt
!!!EMD: converted to Humdrum by Bret Aarden
